packages/kaspersky-hexa-ui-icons/src/iconsSVGs/16/Union.svg

<svg width="16" height="16" viewBox="0 0 16 16" fill="none" xmlns="http://www.w3.org/2000/svg">
<path fill-rule="evenodd" clip-rule="evenodd" d="M6.6666 2.0166C5.81 2.0166 5.08024 2.55964 4.80279 3.32025C7.20183 3.32025 9.60089 3.3166 11.9999 3.3166C12.3773 3.3166 12.6833 3.62254 12.6833 3.99993V9.33327C12.6833 9.71066 12.3773 10.0166 11.9999 10.0166H11.3166V6.6666C11.3166 5.57123 10.4286 4.68327 9.33327 4.68327H3.99993C2.90457 4.68327 2.0166 5.57123 2.0166 6.6666V11.9999C2.0166 13.0953 2.90457 13.9833 3.99993 13.9833H9.33327C10.4286 13.9833 11.3166 13.0953 11.3166 11.9999V11.3166H11.9999C13.0953 11.3166 13.9833 10.4286 13.9833 9.33327V3.99993C13.9833 2.90457 13.0953 2.0166 11.9999 2.0166H6.6666ZM4.68327 5.98327V9.33327C4.68327 10.4286 5.57123 11.3166 6.6666 11.3166H8.71738V10.0166H6.6666C6.2892 10.0166 5.98327 9.71066 5.98327 9.33327V5.98327H9.33327C9.71066 5.98327 10.0166 6.2892 10.0166 6.6666V11.9999C10.0166 12.3773 9.71066 12.6833 9.33327 12.6833H3.99993C3.62254 12.6833 3.3166 12.3773 3.3166 11.9999V6.6666C3.3166 6.2892 3.62254 5.98327 3.99993 5.98327H4.68327Z" fill="black"/>
</svg>

<svg xmlns="http://www.w3.org/2000/svg" width="16" height="16" fill="none" viewBox="0 0 16 16"><path fill="#000" fill-rule="evenodd" d="M6.6667 2.0167c-.8566 0-1.5864.543-1.8638 1.3036 2.399 0 4.798-.0036 7.1971-.0036A.6833.6833 0 0 1 12.6833 4v5.3333a.6833.6833 0 0 1-.6833.6834h-.6833v-3.35c0-1.0954-.888-1.9834-1.9834-1.9834H4c-1.0954 0-1.9833.888-1.9833 1.9834V12c0 1.0954.888 1.9833 1.9833 1.9833h5.3333c1.0954 0 1.9834-.8879 1.9834-1.9833v-.6833H12c1.0954 0 1.9833-.888 1.9833-1.9834V4c0-1.0954-.8879-1.9833-1.9833-1.9833zM4.6833 5.9833v3.35c0 1.0954.888 1.9834 1.9834 1.9834h2.0507v-1.3H6.6667a.6834.6834 0 0 1-.6834-.6834v-3.35h3.35c.3774 0 .6834.306.6834.6834V12a.6833.6833 0 0 1-.6834.6833H4A.6833.6833 0 0 1 3.3167 12V6.6667A.6834.6834 0 0 1 4 5.9833z"/></svg>
